src/assets/skills/sass.svg

<svg height="100pt" viewBox="0 0 100 100" width="100pt" xmlns="http://www.w3.org/2000/svg"><path d="m100 0v100h-100v-100z" fill="#c69"/><path d="m79.224 23.577c-2.094-8.237-15.743-10.944-28.659-6.351-7.681 2.731-16.001 7.02-21.984 12.615-7.116 6.647-8.248 12.439-7.782 14.86 1.648 8.537 13.348 14.121 18.161 18.265v.024c-1.416.695-11.801 5.905-14.234 11.294-2.606 5.676.406 9.734 2.375 10.252 6.082 1.683 12.337-1.39 15.697-6.368 3.243-4.868 2.956-11.124 1.561-14.194 1.914-.521 4.17-.753 7.066-.402 8.112.926 9.734 6.023 9.383 8.109-.347 2.082-2.018 3.298-2.603 3.646-.58.35-.753.463-.698.698.058.347.35.347.811.289.637-.116 4.231-1.737 4.405-5.679.173-4.981-4.579-10.539-13.033-10.426-3.475.061-5.679.351-7.24.988-.116-.174-.235-.29-.405-.406-5.213-5.618-14.886-9.557-14.481-17.028.116-2.723 1.101-9.902 18.535-18.59 14.307-7.128 25.72-5.155 27.689-.811 2.83 6.194-6.084 17.724-20.97 19.401-5.676.637-8.63-1.561-9.386-2.375-.808-.869-.924-.927-1.214-.75-.463.231-.173.984 0 1.448.464 1.158 2.259 3.185 5.39 4.228 2.719.869 9.383 1.387 17.376-1.738 8.975-3.472 15.984-13.148 13.957-21.257zm-38.271 41.941c.675 2.49.602 4.819-.093 6.918l-.252.696c-.093.234-.2.463-.301.68-.542 1.121-1.26 2.163-2.143 3.128-2.696 2.931-6.455 4.043-8.072 3.107-1.737-1.01-.871-5.155 2.257-8.456 3.362-3.545 8.187-5.827 8.187-5.827v-.012z" fill="#fff" fill-rule="evenodd"/></svg>

<?xml version="1.0" encoding="UTF-8" standalone="no"?><!-- Generator: Gravit.io --><svg xmlns="http://www.w3.org/2000/svg" xmlns:xlink="http://www.w3.org/1999/xlink" style="isolation:isolate" viewBox="0 0 100 100" width="100pt" height="100pt"><path d=" M 100 0 L 100 100 L 0 100 L 0 0 L 100 0 Z " fill="rgb(204,102,153)"/><path d=" M 79.224 23.577 C 77.13 15.34 63.481 12.633 50.565 17.226 C 42.884 19.957 34.564 24.246 28.581 29.841 C 21.465 36.488 20.333 42.28 20.799 44.701 C 22.447 53.238 34.147 58.822 38.96 62.966 L 38.96 62.99 C 37.544 63.685 27.159 68.895 24.726 74.284 C 22.12 79.96 25.132 84.018 27.101 84.536 C 33.183 86.219 39.438 83.146 42.798 78.168 C 46.041 73.3 45.754 67.044 44.359 63.974 C 46.273 63.453 48.529 63.221 51.425 63.572 C 59.537 64.498 61.159 69.595 60.808 71.681 C 60.461 73.763 58.79 74.979 58.205 75.327 C 57.625 75.677 57.452 75.79 57.507 76.025 C 57.565 76.372 57.857 76.372 58.318 76.314 C 58.955 76.198 62.549 74.577 62.723 70.635 C 62.896 65.654 58.144 60.096 49.69 60.209 C 46.215 60.27 44.011 60.56 42.45 61.197 C 42.334 61.023 42.215 60.907 42.045 60.791 C 36.832 55.173 27.159 51.234 27.564 43.763 C 27.68 41.04 28.665 33.861 46.099 25.173 C 60.406 18.045 71.819 20.018 73.788 24.362 C 76.618 30.556 67.704 42.086 52.818 43.763 C 47.142 44.4 44.188 42.202 43.432 41.388 C 42.624 40.519 42.508 40.461 42.218 40.638 C 41.755 40.869 42.045 41.622 42.218 42.086 C 42.682 43.244 44.477 45.271 47.608 46.314 C 50.327 47.183 56.991 47.701 64.984 44.576 C 73.959 41.104 80.968 31.428 78.941 23.319 L 79.224 23.577 Z  M 40.953 65.518 C 41.628 68.008 41.555 70.337 40.86 72.436 L 40.608 73.132 C 40.515 73.366 40.408 73.595 40.307 73.812 C 39.765 74.933 39.047 75.975 38.164 76.94 C 35.468 79.871 31.709 80.983 30.092 80.047 C 28.355 79.037 29.221 74.892 32.349 71.591 C 35.711 68.046 40.536 65.764 40.536 65.764 L 40.536 65.752 L 40.953 65.518 Z " fill-rule="evenodd" fill="rgb(255,255,255)"/></svg>
